!!!SOCIAL_FUNCTION:	songs with hunting dance
!!!PDT:	1956
!!!OTL: No_48_Cow_Creek_Hunting_Dance_Song_(o).krn
!!!LANG: Non-Tone
!!!LING_GROUP: Muskogean
!!!REG: Florida
**kern
*staff1
=1-
=
*clefF4
*k[b-]
*M2/4
4F\
8.c\L
16c\Jk
=2
2c\
=3
4B-\
8.A\L
16F\Jk
=4
2F\
=5
4A\
4c\
=6
4B-\
4r
=7
4B-\
8.A\L
16F\Jk
=8
2F\
=9
4A\
4A\
=10
2F\
=11
8.A\L
16F\Jk
8.F\L
16E\Jk
=12
2F\
=13
4F\
4F\
=14
2r
=15
8.F\L
16F\Jk
8.F\L
16E\Jk
=16
2F\
=17
4A\
8A\L
8F\J
=18
4A\
4r
=19
4B-\
8.A\L
16F\Jk
=20
2F\
=21
8B-\L
8A\J
4B-\
=22
2F\
=23
8.A\L
16F\Jk
8.F\L
16E\Jk
=24
2F\
=25
8F\L
8E\J
4F\
=26
2r
=27
4F\
8.F\L
16E\Jk
=28
2F\
==:|!
*-
